X:950
T:Tay Boat Song
C:Joe Buchanan's Scottish Tome - Page 553.2
I:553 2
Z:Carl Allison
R:Waltz
L:1/4
M:3/4
K:D
"A7"(A G) |: "D"F2 E | "Bm"D2 F | "F#m"A3- | A F D | "G"d2 c | "G"B2 G | "D"A3- | A F D |
"Em"G2 A | "A"B2 G | "F#m"A3- | "Bm"A F D | "Em"F2 E |1 "E7"E2 "A"F | G2 F | "A"E2 D  :|2 "Em"D2 C | "D"D3- | "A" D2 D |]
"D7"(F A) | "Em"d2 c | "G"B2 A |"D" A D2- | "D7"D F A | "G"d2 c | "A"B2 A | "F#m"A3- | A2 "Bm"A |
"Em"d2 c | "A7"B2 A | "D"A F2- | "Bm"F2 D | "Em"F2 E | "E7"E2 F | "Gm"G2 F | "A7"E2D |
"D"F2 E | "Bm"D2 F | "F#m"A3- | "D7"A F D | "G"d2 c | "A"B2 G | "F#m"A3- | A "Bm"F D |
"Em"G2 A | "G"B2 G | "F#m"A3- | A "Bm"F D | "Em"F2 E | "Gm"D2 C | "D"D3- | "Gm"D2 |]
W:Errata: Weird scoring on A part. Hopefully interpreted correctly + added repeat at first bar.

